!!!!SEGMENT: pl-sa--6-a-i-6--002_anonim--mazur.krn
!!!cenid: 18xx:365
!!!COM: Anonim
!!!COM-rismid: pe30004985
!!!CDT:
!!!CNT:
!!!OTL: Mazur
!!!PDT:
!!!AGN: Secular; Mazurka
!!!SMS-siglum: PL-SA
!!!SMS-shelfmark: 6/A I 6
!!!SMS-shelfwork: 002 W
!!!SMS-variant:
!!!SMS-altvar:
!!!NIFC-rismid: 1001065402
!!!system-decoration: {(s1,s2)}
**kern	**kern
*part1	*part1
*staff2	*staff1
*	*I"Piano
*clefF4	*clefG2
*k[f#c#g#]	*k[f#c#g#]
*A:	*A:
*M3/8	*M3/8
*>[A,B,B]	*>[A,B,B]
=1	=1
*>a	*>A
!	!LO:TX:a:Bi:t=2.:problem:'2.' znajduje się po lewej stronie systemu
8A\L	8.a\L
8e 8c#\	.
.	16cc#\L
8eJ 8c#\	16ee\JJ
.	16ryy
=2	=2
8B\L	16ee\LL
.	16dd\
8g# 8d\	16b\
.	16dd\
8g#J 8d\	16ee\
.	16dd\JJ
=3	=3
8A\L	16cc#\LL
.	16a\
8e 8c#\	16cc#\
.	16ee\J
8eJ 8c#\	8aa\J
=4	=4
8G#\L	16gg#\LL
.	16ee\
8e 8B\	16ee\
.	16gg#\
8eJ 8B\	16bb\
.	16aa\JJ
=5	=5
8A\L	8.a\L
8e 8c#\	.
.	16cc#\L
8eJ 8c#\	16ee\JJ
.	16ryy
=6	=6
8G#\L	16ee\LL
.	16dd\
8e 8B\	16b\
.	16dd\
8eJ 8B\	16ee\
.	16dd\JJ
=7	=7
8A\L	16cc#\LL
.	16a\
8e 8c#\	16cc#\
.	16ee\J
8eJ 8c#\	8aa\J
=8	=8
8G#\L	16gg#\LL
.	16ee\
8e 8B\	16ee\
.	16gg#\
8eJ 8B\	16bb\
.	16aa\JJ
=9!|:	=9!|:
*>B	*>B
8E\L	8gg#\L
8d 8B\	16gg#\L
.	16ee\
8dJ 8B\	16ff#\
.	16gg#\JJ
=10	=10
8A\L	16.aa\LL
.	32gg#\K
8e 8c#\	16.aa\
.	32ee\K
8eJ 8c#\	16cc#\JJ
!	!LO:N:vis=8
.	16r
=11	=11
8E\L	16.dd\LL
.	32b\K
8B 8G#\	16.g#\
.	32b\K
8BJ 8G#\	16dd\JJ
!	!LO:N:vis=8
.	16r
=12	=12
8A\L	16.cc#\LL
.	32ee\JJk
8e 8c#\	4aa\
8eJ 8c#\	.
!!LO:LB:g=original
=13	=13
8B\L	8gg#\L
8g# 8d\	16.gg#\L
.	32ee\K
8g#J 8d\	16.ff#\
.	32gg#\JJk
=14	=14
8A\L	16.aa\LL
.	32gg#\K
8e 8c#\	16.aa\
.	32ee\JK
8eJ 8c#\	8cc#\J
=15	=15
8E\L	16.dd\LL
.	32b\K
8d 8B\	16.g#\
.	32b\JK
8dJ 8B\	8dd\J
=16	=16
8c# 8A\	16.dd\LL
.	32b\JJk
4c# 4A\	4a/
==:|!;	==:|!;
*-	*-
!!title: @{OTL};
!!!RDF**kern: > = above
!!!RDF**kern: < = below
!!!EED: Wojciech Jakubiak-Danek
!!!EST: 2020-12-15
!!!URL-scan: http://bc.bdsandomierz.pl/dlibra/publication/1233/edition/1194/content
!!!ONB-nifc: Str. 1, s. 2-3
!!!ENC: Tomasz Grochalski
!!!END: 2020-06-15
